symbolic/48x48/apps/lookit.svg

<svg xmlns="http://www.w3.org/2000/svg" width="48" height="48" version="1">
 <path opacity=".2" d="m2.0234 28.568c-0.0083 0.175-0.0234 0.347-0.0234 0.524 0 6.025 4.9249 10.908 11 10.908h23.375c5.316 0 9.625-4.273 9.625-9.545 0-0.173-0.014-0.343-0.023-0.514-0.258 5.044-4.452 9.059-9.602 9.059h-23.375c-5.9129 0-10.723-4.63-10.977-10.432z"/>
 <path fill="#b2bfd9" d="m24 9c-5.695 0-10.545 3.458-12.633 8.352-5.3013 0.782-9.367 5.264-9.367 10.739 0 6.025 4.9249 10.909 11 10.909h23.375c5.316 0 9.625-4.274 9.625-9.545 0-4.9-3.715-8.915-8.508-9.461-1.25-6.254-6.818-10.994-13.492-10.994z"/>
 <path fill="#fff" opacity=".2" d="m24 9c-5.695 0-10.545 3.457-12.633 8.352-5.3013 0.781-9.367 5.265-9.367 10.74 0 0.161 0.0165 0.317 0.0234 0.476 0.2507-5.234 4.213-9.46 9.3436-10.216 2.088-4.895 6.938-8.352 12.633-8.352 6.674 0 12.242 4.739 13.492 10.994 4.624 0.526 8.234 4.284 8.485 8.947 0.008-0.162 0.023-0.322 0.023-0.486 0-4.9-3.715-8.915-8.508-9.461-1.25-6.255-6.818-10.994-13.492-10.994z"/>
 <path opacity=".5" d="m24 13a12 12 0 0 0 -12 12 12 12 0 0 0 12 12 12 12 0 0 0 12 -12 12 12 0 0 0 -12 -12zm0 3a9 9 0 0 1 9 9 9 9 0 0 1 -9 9 9 9 0 0 1 -9 -9 9 9 0 0 1 9 -9z"/>
 <circle opacity=".5" cx="24" cy="25" r="6"/>
</svg>

<svg xmlns="http://www.w3.org/2000/svg" width="48" height="48" version="1"><path opacity=".2" d="M2.023 28.568c-.008.175-.023.347-.023.524C2 35.117 6.925 40 13 40h23.375C41.691 40 46 35.727 46 30.455c0-.173-.014-.343-.023-.514C45.719 34.985 41.525 39 36.375 39H13C7.087 39 2.277 34.37 2.023 28.568z"/><path fill="#b2bfd9" d="M24 9c-5.695 0-10.545 3.458-12.633 8.352C6.066 18.134 2 22.616 2 28.091 2 34.116 6.925 39 13 39h23.375C41.691 39 46 34.726 46 29.455c0-4.9-3.715-8.915-8.508-9.461C36.242 13.74 30.674 9 24 9z"/><path fill="#fff" opacity=".2" d="M24 9c-5.695 0-10.545 3.457-12.633 8.352C6.066 18.133 2 22.617 2 28.092c0 .161.017.317.023.476.251-5.234 4.213-9.46 9.344-10.216C13.455 13.457 18.305 10 24 10c6.674 0 12.242 4.739 13.492 10.994 4.624.526 8.234 4.284 8.485 8.947.008-.162.023-.322.023-.486 0-4.9-3.715-8.915-8.508-9.461C36.242 13.739 30.674 9 24 9z"/><path opacity=".5" d="M24 13a12 12 0 0 0-12 12 12 12 0 0 0 12 12 12 12 0 0 0 12-12 12 12 0 0 0-12-12zm0 3a9 9 0 0 1 9 9 9 9 0 0 1-9 9 9 9 0 0 1-9-9 9 9 0 0 1 9-9z"/><circle opacity=".5" cx="24" cy="25" r="6"/></svg>
